X:90
T:Game of Love
M:C|
L:1/8
Q:120
R:Reel (Key of Edor)
K:Edor
"Em"B2EF GFGB | "D"AD (3FED FA ~A2 | "Em"B2EF GABc | "D"dcBA Beef |
"Em"e2EF "A"GABc |"D"dD (3FED FA ~A2 | "Em"~B3A GABc |"D"dcBA "Em"BE ~E2 :|:
"Em"Beed egfe | "D"defg afdf | "Em"eBBA Bgfe | "D"dcBA "Em"BE ~E2 |
Beed "A"egfe | "D"defg afga | "C"gefg "D"fdef | "Bm"edBA "Em"BE ~E2 :|]
